X:1
T:How Blest Was That Life
T:Anonymous, ca. 1900
T:How Blest Was That Life
T:Public Domain
T:Public Domain
C:Anonymous, ca. 1900
Z:Public Domain
%%score 1 ( 2 3 )
L:1/8
M:3/4
K:Bb
V:1 treble 
V:2 bass 
V:3 bass 
V:1
 [DF]2 | [DF]2 [EG]2 [DF]2 | [DB]4 [FB]2 | [GB]3 [FA] [EG]2 | [DF]4 [DF]2 | [CF]2 [CG]2 [FA]2 | %6
w: 1.~How|blest was that|life once|lived up- on|earth, The|life of the|
w: 2.~The|friend of our|need, the|hope of the|world, A-|bides with us|
w: 3.~O|Lord of the|sea, who|once walked a-|broad On|treach- er- ous|
w: 4.~Thou|art not a-|far, in|re- gions un-|known: Our|faith reach- eth|
 [=EB]3 [EA] [EB]2 | [Ec]6- | [Ec]4 [EF]2 | [DF]2 [EG]2 [DF]2 | [DB]4 [FB]2 | [Fc]3 [FB] [Fc]2 | %12
w: Sav- ior of|men!|* What|joy was their|part who|learned at His|
w: still as of|old;|* When|wan- der- ing|far in|sor- row and|
w: waves of the|tide,|* We|know that Thy|strong and|pi- ty- ing|
w: up un- to|Thee;|* And|still, through the|mists of|ag- es long|
 [Fd]4 [_Ad]2 | [Ge]3 [Gd] [Gc]2 | [Fd]2 [EB]2 [Ec]2 | [DB]6- | [DB]4 ||"^Refrain" [DF]2 | %18
w: feet, Who|loved and who|wor- shipped Him|then!|||
w: sin, He|lead- eth us|home to the|fold.||I|
w: arms, Our|wav- er- ing|foot- steps still|guide.|||
w: past, The|Sav- ior of|sin- ners doth|see.|||
 [CF]3 [DF] [EF]2 | [DF] [DF]3 [FB]2 | [FA]3 [FB] [Fc]2 | [FB]4 [FB]2 | [Fd]3 [Fc] [FB]2 | %23
w: |||||
w: know that He|liv- eth, Re-|deem- er and|friend, To|bless and to|
w: |||||
w: |||||
 [GB]3 [DA] [DG]2 | [^Fd]6- | [Fd]4 [=Fd]2 | [Fd]3 [Ec] [Fd]2 | [DB]4 [DF][DF] | [Fd]3 [Ec] [Fd]2 | %29
w: ||||||
w: com- fort our|way;|* I|know the glad|song of the|heav- en- ly|
w: ||||||
w: ||||||
 [DB]4 [DF]2 | [EG] [EG]3 [Ge]2 | [Fd] [Fd]3 [Ec]2 | [DB]6- | [DB]4 |] %34
w: |||||
w: throng— He|liv- eth, He|liv- eth to-|day!||
w: |||||
w: |||||
V:2
 [B,,B,]2 | [B,,B,]2 [B,,B,]2 [B,,B,]2 | [B,,F,]4 [D,B,]2 | [E,B,]3 [E,B,] [E,B,]2 | %4
 [B,,B,]4 [B,,B,]2 | [F,A,]2 [F,B,]2 [F,C]2 | [C,C]3 [C,C] [C,G,B,]2 | [F,A,]6- | [F,A,]4 [F,A,]2 | %9
 [B,,B,]2 [B,,B,]2 [B,,B,]2 | [B,,F,]4 [D,B,]2 | [F,A,]3 [D,B,] [F,A,]2 | [B,,B,]4 B,2 | %13
 [E,B,]3 [E,B,] [E,B,]2 | [F,B,]2 [F,B,]2 [F,A,]2 | [B,,F,]6- | [B,,F,]4 || [B,,B,]2 | %18
 [F,A,]3 [F,B,] [F,C]2 | [B,,B,] [B,,B,]3 [B,,D]2 | [F,C]3 [F,D] [F,E]2 | [B,,D]4 [B,D]2 | %22
 [B,D]3 [B,D] [B,D]2 | [G,D]3 [G,B,] [G,B,]2 | [D,A,]6- | [D,A,]4 [B,,B,]2 | %26
 [B,,B,]3 [B,,B,] [B,,B,]2 | [B,,F,]4 [B,,B,][B,,B,] | [B,,B,]3 [B,,B,] [B,,B,]2 | %29
 [B,,F,]4 [B,,B,]2 | [E,B,] [E,B,]3 [E,B,]2 | [F,B,] [F,B,]3 [F,A,]2 | [B,,F,B,]6- | [B,,F,B,]4 |] %34
V:3
 x2 | x6 | x6 | x6 | x6 | x6 | x6 | x6 | x6 | x6 | x6 | x6 | x4 B,2 | x6 | x6 | x6 | x4 || x2 | %18
 x6 | x6 | x6 | x6 | x6 | x6 | x6 | x6 | x6 | x6 | x6 | x6 | x6 | x6 | x6 | x4 |] %34

